docs/.vuepress/public/svg/crowdin-core-logo-cDark.svg

<svg width="100%" height="100%" viewBox="0 0 184 92" xmlns="http://www.w3.org/2000/svg" xml:space="preserve"
    style="fill-rule:evenodd;clip-rule:evenodd;stroke-linejoin:round;stroke-miterlimit:2">
    <path
        d="M184 13.8v64.4c0 7.616-6.184 13.8-13.8 13.8H13.8C6.184 92 0 85.816 0 78.2V13.8C0 6.184 6.184 0 13.8 0h156.4c7.616 0 13.8 6.184 13.8 13.8Z"
        style="fill:#f2f2f2" />
    <path
        d="M46.552 20.06c0 2.75.842 4.954 2.524 6.617 1.684 1.66 3.959 2.492 6.829 2.492 2.87 0 4.8-.702 6.236-2.105 1.434-1.414 2.152-3.053 2.152-4.916v-.17H60.14v.152c0 .751-.328 1.398-.982 1.936-.657.539-1.751.809-3.288.809-1.727 0-2.994-.422-3.796-1.264-.801-.841-1.203-1.964-1.203-3.367v-.91c0-1.402.407-2.525 1.221-3.366.814-.842 2.073-1.264 3.778-1.264 1.491 0 2.575.258 3.254.774.69.516 1.033 1.168 1.033 1.954v.169h4.152l-.017-.22c-.069-1.875-.802-3.501-2.203-4.883-1.402-1.393-3.463-2.088-6.185-2.088-2.87 0-5.147.831-6.83 2.492-1.683 1.65-2.523 3.855-2.523 6.617v.541h.001Zm21.233 8.603h4.237v-8.745c0-1.915.926-2.905 1.694-3.445.768-.55 1.644-.824 2.626-.824.305 0 .582.017.83.05.26.033.503.073.728.119v-5.152a3.686 3.686 0 0 0-.593-.152 3.95 3.95 0 0 0-.797-.083c-1.005 0-1.903.27-2.694.809a6.292 6.292 0 0 0-1.724 1.714c-.046.068-.153.04-.158-.042l-.37-1.993h-3.78v17.745h.001v-.001ZM79.63 20.06c0 2.75.876 4.954 2.627 6.617 1.75 1.66 4.055 2.492 6.915 2.492 2.859 0 5.146-.831 6.897-2.492 1.763-1.661 2.643-3.867 2.643-6.617v-.539c0-2.76-.88-4.967-2.643-6.617-1.75-1.661-4.05-2.492-6.897-2.492-2.847 0-5.163.831-6.915 2.492-1.75 1.65-2.626 3.855-2.626 6.617v.539h-.001Zm4.321-.724c0-1.537.453-2.66 1.356-3.367.904-.707 2.191-1.061 3.865-1.061 1.673 0 2.943.354 3.846 1.061.916.708 1.374 1.83 1.374 3.367v.91c0 1.595-.453 2.733-1.356 3.418-.893.672-2.18 1.01-3.864 1.01-1.684 0-2.977-.336-3.88-1.01-.893-.685-1.339-1.825-1.339-3.418v-.91h-.002Zm16.685-8.421 5.321 17.745h4.818l3.779-12.886c.04-.137.236-.14.28-.003l4.075 12.89h4.817l5.355-17.746h-5.239l-2.644 9.884c-.112.45-.221.892-.323 1.33-.057.275-.154.712-.215.99-.014.06-.102.062-.116 0-.078-.332-.16-.662-.246-.992-.111-.447-.236-.89-.373-1.33l-2.949-9.883h-5.017s-2.961 10.082-3.508 12.09c-.023.088-.147.086-.17 0l-3.066-12.089h-4.582.003Zm29.833 9.145c0 2.626.717 4.775 2.152 6.448 1.446 1.66 3.452 2.492 6.017 2.492 1.333 0 2.485-.24 3.455-.723.676-.34 1.542-1.102 2.019-1.546.195.815.456 1.934.456 1.934h4.2V2.853h-4.421v10.203a5.539 5.539 0 0 0-2.236-1.818c-.926-.438-2.051-.657-3.372-.657-2.485 0-4.485.836-5.999 2.508-1.513 1.66-2.271 3.804-2.271 6.43v.541Zm4.322.169-.016-.875c0-1.28.395-2.313 1.186-3.099.791-.796 2.017-1.195 3.678-1.195 1.163 0 2.153.27 2.965.808l.024.016a3.925 3.925 0 0 1 1.721 3.266v1.22a3.94 3.94 0 0 1-1.829 3.342c-.87.539-1.876.809-3.016.809-1.673 0-2.875-.4-3.61-1.195-.735-.797-1.101-1.83-1.101-3.1l-.002.003Zm18.994 8.435h4.22V10.917h-4.22v17.747Zm-.897-22.595c0 .763.26 1.392.779 1.885.532.483 1.275.724 2.237.724.961 0 1.684-.248 2.203-.741.531-.493.796-1.117.796-1.868 0-.751-.259-1.358-.78-1.853-.52-.493-1.265-.74-2.237-.74-.972 0-1.687.247-2.219.74-.519.493-.779 1.112-.779 1.853Zm10.234 22.594h4.22v-7.197c0-4.075 1.451-6.657 4.608-6.657 3.158 0 3.831 1.824 3.831 4.386v9.468H180V18.142c0-3.019-.621-5.035-1.865-6.044-1.243-1.021-2.829-1.532-4.762-1.532-1.275 0-2.456.235-3.542.708-.975.418-1.769 1.014-2.382 1.784-.051-.273-.329-2.138-.329-2.138h-4v17.745h.002v-.002ZM26.38 0H10.737c-1.68 0-3.216.287-4.566.826a9.593 9.593 0 0 0-3.23 2.097A9.548 9.548 0 0 0 .776 6.271C.27 7.58 0 9.057 0 10.668v15.54c0 1.713.291 3.265.838 4.625a9.598 9.598 0 0 0 2.116 3.232 9.495 9.495 0 0 0 3.236 2.103c1.373.544 2.943.832 4.672.832H26.38c1.724 0 3.286-.29 4.655-.832a9.664 9.664 0 0 0 3.253-2.103 9.402 9.402 0 0 0 2.123-3.232c.544-1.36.831-2.914.831-4.625V10.792c0-1.67-.276-3.185-.796-4.52a9.617 9.617 0 0 0-2.158-3.337 9.477 9.477 0 0 0-3.252-2.11C29.665.286 28.102 0 26.379 0h.001Z"
        style="fill:#263238;fill-rule:nonzero" transform="translate(2 27.5)" />
    <path
        d="M23.04 22.681c-.012-.136-.124-.654-.484-.666h-1.117s-.46 0-.46.444c.013.863.51 1.603 1.118 2.097.509.42 1.13.641 1.837.641.62-.012.695-.456.397-.592-.497-.234-1.142-.752-1.279-1.924h-.012Zm3.34-11.889c-1.601 0-3.202.197-4.656.553-1.388.34-2.643.824-3.637 1.42-1.093.654-1.937 1.443-2.52 2.356a5.832 5.832 0 0 0-.894 2.405c-.037.283-.062 1.171.882 1.406.583.148 1.502.21 2.11.283.993.111 1.266-.986 1.353-1.171.782-2.146 1.949-3.59 3.612-4.539 1.015-.578 2.24-.97 3.75-1.19 1.001-.145 2.128-.216 3.4-.216.423 0 1.403.05 1.403-.432 0-.369-.771-.58-1.7-.701-1.244-.162-2.77-.162-3.104-.162v-.012h.001Zm-4.358 16.292c-1.13-.259-3.029-1.48-3.463-4.576-.087-.58-.41-.863-.907-.962-.658-.135-1.812-.197-2.184-.234-.534-.05-.931.259-.87 1.184.112 1.406.683 2.504 1.64 3.589 1.129 1.283 2.619 2.023 4.207 1.986 1.75-.037 1.875-.346 1.887-.58 0-.234-.111-.37-.31-.42v.013Zm-4.754 2.59c-1.75 0-5.425-2.787-5.425-7.153 0-.765-.472-1.542-1.44-1.826-.782-.234-1.9-.58-2.607-.616-1.7-.111-1.614 1.295-1.564 2.035.161 3.095 1.54 5.71 3.81 7.19.944.617 2.062 1.036 3.377 1.283.31.061 1.415.283 2.533.246 1.725-.074 1.9-.567 1.9-.764 0-.26-.187-.383-.584-.383v-.012Z"
        style="fill:#fff;fill-rule:nonzero" transform="translate(2 27.5)" />
    <path
        d="M31.618 7.77a31.852 31.852 0 0 0-2.135-.533 33.572 33.572 0 0 0-3.104-.511 35.23 35.23 0 0 0-7.709-.054c-2.232.236-4.723.788-6.892 1.924-2.259 1.183-4.169 2.998-5.075 5.748-.186.555-.52 2.59 1.44 3.083.634.16 1.28.444 1.95.567 1.911.346 2.32-1.455 2.433-1.813.111-.345.235-.678.384-1.023a9.463 9.463 0 0 1 2.545-3.244c2.135-1.776 4.792-2.615 7.374-3.022a25.078 25.078 0 0 1 4.506-.296 81.093 81.093 0 0 1 3.7.164c1.194.077 1.42.088 1.526-.213.174-.493-.645-.703-.943-.777Zm-3.886 7.067c-5.04 0-6.355 2.516-6.728 4.193-.174.814.323.876.782.962.646.111 1.167.013 1.403-.604.708-1.912 1.676-3.786 4.742-3.786.31 0 .584-.198.584-.383s-.2-.382-.77-.382h-.013Z"
        style="fill:#fff;fill-rule:nonzero" transform="translate(2 27.5)" />
</svg>

<?xml version="1.0" encoding="UTF-8" standalone="no"?>
<!DOCTYPE svg PUBLIC "-//W3C//DTD SVG 1.1//EN" "http://www.w3.org/Graphics/SVG/1.1/DTD/svg11.dtd">
<svg width="100%" height="100%" viewBox="0 0 184 92" version="1.1" xmlns="http://www.w3.org/2000/svg" xmlns:xlink="http://www.w3.org/1999/xlink" xml:space="preserve" xmlns:serif="http://www.serif.com/" style="fill-rule:evenodd;clip-rule:evenodd;stroke-linejoin:round;stroke-miterlimit:2;">
    <path d="M184,13.8L184,78.2C184,85.816 177.816,92 170.2,92L13.8,92C6.184,92 0,85.816 0,78.2L0,13.8C0,6.184 6.184,0 13.8,0L170.2,0C177.816,0 184,6.184 184,13.8Z" style="fill:rgb(242,242,242);"/>
    <g transform="matrix(1,0,0,1,2,27.5)">
        <path d="M46.552,20.06C46.552,22.81 47.394,25.014 49.076,26.677C50.76,28.337 53.035,29.169 55.905,29.169C58.775,29.169 60.705,28.467 62.141,27.064C63.575,25.65 64.293,24.011 64.293,22.148L64.293,21.978L60.14,21.978L60.14,22.13C60.14,22.881 59.812,23.528 59.158,24.066C58.501,24.605 57.407,24.875 55.87,24.875C54.143,24.875 52.876,24.453 52.074,23.611C51.273,22.77 50.871,21.647 50.871,20.244L50.871,19.334C50.871,17.932 51.278,16.809 52.092,15.968C52.906,15.126 54.165,14.704 55.87,14.704C57.361,14.704 58.445,14.962 59.124,15.478C59.814,15.994 60.157,16.646 60.157,17.432L60.157,17.601L64.309,17.601L64.292,17.381C64.223,15.506 63.49,13.88 62.089,12.498C60.687,11.105 58.626,10.41 55.904,10.41C53.034,10.41 50.757,11.241 49.074,12.902C47.391,14.552 46.551,16.757 46.551,19.519L46.551,20.06L46.552,20.06ZM67.785,28.663L72.022,28.663L72.022,19.918C72.022,18.003 72.948,17.013 73.716,16.473C74.484,15.923 75.36,15.649 76.342,15.649C76.647,15.649 76.924,15.666 77.172,15.699C77.432,15.732 77.675,15.772 77.9,15.818L77.9,10.666C77.707,10.599 77.508,10.548 77.307,10.514C77.045,10.459 76.778,10.432 76.51,10.431C75.505,10.431 74.607,10.701 73.816,11.24C73.135,11.694 72.55,12.276 72.092,12.954C72.046,13.022 71.939,12.994 71.934,12.912L71.564,10.919L67.784,10.919L67.784,28.664L67.785,28.664L67.785,28.663ZM79.63,20.06C79.63,22.81 80.506,25.014 82.257,26.677C84.007,28.337 86.312,29.169 89.172,29.169C92.031,29.169 94.318,28.338 96.069,26.677C97.832,25.016 98.712,22.81 98.712,20.06L98.712,19.521C98.712,16.761 97.832,14.554 96.069,12.904C94.319,11.243 92.019,10.412 89.172,10.412C86.325,10.412 84.009,11.243 82.257,12.904C80.507,14.554 79.631,16.759 79.631,19.521L79.631,20.06L79.63,20.06ZM83.951,19.336C83.951,17.799 84.404,16.676 85.307,15.969C86.211,15.262 87.498,14.908 89.172,14.908C90.845,14.908 92.115,15.262 93.018,15.969C93.934,16.677 94.392,17.799 94.392,19.336L94.392,20.246C94.392,21.841 93.939,22.979 93.036,23.664C92.143,24.336 90.856,24.674 89.172,24.674C87.488,24.674 86.195,24.338 85.292,23.664C84.399,22.979 83.953,21.839 83.953,20.246L83.953,19.336L83.951,19.336ZM100.636,10.915L105.957,28.66L110.775,28.66L114.554,15.774C114.594,15.637 114.79,15.634 114.834,15.771L118.909,28.661L123.726,28.661L129.081,10.915L123.842,10.915L121.198,20.799C121.086,21.249 120.977,21.691 120.875,22.129C120.818,22.404 120.721,22.841 120.66,23.119C120.646,23.179 120.558,23.181 120.544,23.119C120.466,22.787 120.384,22.457 120.298,22.127C120.187,21.68 120.062,21.237 119.925,20.797L116.976,10.914L111.959,10.914C111.959,10.914 108.998,20.996 108.451,23.004C108.428,23.092 108.304,23.09 108.281,23.004L105.215,10.915L100.633,10.915L100.636,10.915ZM130.469,20.06C130.469,22.686 131.186,24.835 132.621,26.508C134.067,28.168 136.073,29 138.638,29C139.971,29 141.123,28.76 142.093,28.277C142.769,27.937 143.635,27.175 144.112,26.731C144.307,27.546 144.568,28.665 144.568,28.665L148.768,28.665L148.768,2.853L144.347,2.853L144.347,13.056C143.783,12.27 143.037,11.663 142.111,11.238C141.185,10.8 140.06,10.581 138.739,10.581C136.254,10.581 134.254,11.417 132.74,13.089C131.227,14.749 130.469,16.893 130.469,19.519L130.469,20.06ZM134.791,20.229L134.775,19.354C134.775,18.074 135.17,17.041 135.961,16.255C136.752,15.459 137.978,15.06 139.639,15.06C140.802,15.06 141.792,15.33 142.604,15.868L142.628,15.884C143.709,16.617 144.356,17.844 144.349,19.15L144.349,20.37C144.355,21.723 143.663,22.988 142.52,23.712C141.65,24.251 140.644,24.521 139.504,24.521C137.831,24.521 136.629,24.121 135.894,23.326C135.159,22.529 134.793,21.496 134.793,20.226L134.791,20.229ZM153.785,28.664L158.005,28.664L158.005,10.917L153.785,10.917L153.785,28.664ZM152.888,6.069C152.888,6.832 153.148,7.461 153.667,7.954C154.199,8.437 154.942,8.678 155.904,8.678C156.865,8.678 157.588,8.43 158.107,7.937C158.638,7.444 158.903,6.82 158.903,6.069C158.903,5.318 158.644,4.711 158.123,4.216C157.603,3.723 156.858,3.476 155.886,3.476C154.914,3.476 154.199,3.723 153.667,4.216C153.148,4.709 152.888,5.328 152.888,6.069ZM163.122,28.663L167.342,28.663L167.342,21.466C167.342,17.391 168.793,14.809 171.95,14.809C175.108,14.809 175.781,16.633 175.781,19.195L175.781,28.663L180,28.663L180,18.142C180,15.123 179.379,13.107 178.135,12.098C176.892,11.077 175.306,10.566 173.373,10.566C172.098,10.566 170.917,10.801 169.831,11.274C168.856,11.692 168.062,12.288 167.449,13.058C167.398,12.785 167.12,10.92 167.12,10.92L163.12,10.92L163.12,28.665L163.122,28.665L163.122,28.663ZM26.38,-0L10.737,-0C9.057,-0 7.521,0.287 6.171,0.826C4.964,1.299 3.865,2.013 2.941,2.923C1.992,3.874 1.254,5.015 0.776,6.271C0.27,7.58 0,9.057 0,10.668L0,26.208C0,27.921 0.291,29.473 0.838,30.833C1.317,32.043 2.037,33.142 2.954,34.065C3.877,34.98 4.979,35.696 6.19,36.168C7.563,36.712 9.133,37 10.862,37L26.38,37C28.104,37 29.666,36.71 31.035,36.168C32.25,35.694 33.357,34.978 34.288,34.065C35.212,33.146 35.935,32.046 36.411,30.833C36.955,29.473 37.242,27.919 37.242,26.208L37.242,10.792C37.242,9.122 36.966,7.607 36.446,6.272C35.967,5.022 35.232,3.885 34.288,2.935C33.361,2.015 32.254,1.297 31.036,0.825C29.665,0.286 28.102,-0 26.379,-0L26.38,-0Z" style="fill:rgb(38,50,56);fill-rule:nonzero;"/>
        <path d="M23.04,22.681C23.028,22.545 22.916,22.027 22.556,22.015L21.439,22.015C21.439,22.015 20.979,22.015 20.979,22.459C20.992,23.322 21.489,24.062 22.097,24.556C22.606,24.976 23.227,25.197 23.934,25.197C24.554,25.185 24.629,24.741 24.331,24.605C23.834,24.371 23.189,23.853 23.052,22.681L23.04,22.681ZM26.38,10.792C24.779,10.792 23.178,10.989 21.724,11.345C20.336,11.685 19.081,12.169 18.087,12.765C16.994,13.419 16.15,14.208 15.567,15.121C15.094,15.846 14.789,16.668 14.673,17.526C14.636,17.809 14.611,18.697 15.555,18.932C16.138,19.08 17.057,19.142 17.665,19.215C18.658,19.326 18.931,18.229 19.018,18.044C19.8,15.898 20.967,14.454 22.63,13.505C23.645,12.927 24.87,12.535 26.38,12.315C27.381,12.17 28.508,12.099 29.78,12.099C30.203,12.099 31.183,12.149 31.183,11.667C31.183,11.298 30.412,11.087 29.483,10.966C28.239,10.804 26.713,10.804 26.379,10.804L26.379,10.792L26.38,10.792ZM22.022,27.084C20.892,26.825 18.993,25.604 18.559,22.508C18.472,21.928 18.149,21.645 17.652,21.546C16.994,21.411 15.84,21.349 15.468,21.312C14.934,21.262 14.537,21.571 14.598,22.496C14.71,23.902 15.281,25 16.238,26.085C17.367,27.368 18.857,28.108 20.445,28.071C22.195,28.034 22.32,27.725 22.332,27.491C22.332,27.257 22.221,27.121 22.022,27.071L22.022,27.084ZM17.268,29.674C15.518,29.674 11.843,26.887 11.843,22.521C11.843,21.756 11.371,20.979 10.403,20.695C9.621,20.461 8.503,20.115 7.796,20.079C6.096,19.968 6.182,21.374 6.232,22.114C6.393,25.209 7.772,27.824 10.042,29.304C10.986,29.921 12.104,30.34 13.419,30.587C13.729,30.648 14.834,30.87 15.952,30.833C17.677,30.759 17.852,30.266 17.852,30.069C17.852,29.809 17.665,29.686 17.268,29.686L17.268,29.674Z" style="fill:white;fill-rule:nonzero;"/>
        <path d="M31.618,7.77C30.913,7.568 30.201,7.39 29.483,7.237C28.457,7.018 27.421,6.848 26.379,6.726C23.819,6.426 21.234,6.408 18.67,6.672C16.438,6.908 13.947,7.46 11.778,8.596C9.519,9.779 7.609,11.594 6.703,14.344C6.517,14.899 6.183,16.934 8.143,17.427C8.777,17.587 9.423,17.871 10.093,17.994C12.004,18.34 12.413,16.539 12.526,16.181C12.637,15.836 12.761,15.503 12.91,15.158C13.509,13.903 14.379,12.795 15.455,11.914C17.59,10.138 20.247,9.299 22.829,8.892C24.319,8.658 25.827,8.559 27.335,8.596C28.051,8.611 28.767,8.636 29.483,8.67C30.129,8.701 30.636,8.734 31.035,8.76C32.229,8.837 32.455,8.848 32.561,8.547C32.735,8.054 31.916,7.844 31.618,7.77ZM27.732,14.837C22.692,14.837 21.377,17.353 21.004,19.03C20.83,19.844 21.327,19.906 21.786,19.992C22.432,20.103 22.953,20.005 23.189,19.388C23.897,17.476 24.865,15.602 27.931,15.602C28.241,15.602 28.515,15.404 28.515,15.219C28.515,15.034 28.315,14.837 27.745,14.837L27.732,14.837Z" style="fill:white;fill-rule:nonzero;"/>
    </g>
</svg>
